svg/delete_clock.svg

<svg xmlns="http://www.w3.org/2000/svg" viewBox="0 0 24 24"><path d="M15 13h1.5v2.82l2.44 1.41-.75 1.3L15 16.69zm8 3c0 3.87-3.13 7-7 7-1.91 0-3.64-.76-4.9-2H8c-1.1 0-2-.9-2-2V7h12v2.29c2.89.86 5 3.54 5 6.71m-7-5c-2.76 0-5 2.24-5 5s2.24 5 5 5 5-2.24 5-5-2.24-5-5-5m3-7v2H5V4h3.5l1-1h5l1 1z"/></svg>

<?xml version="1.0" encoding="UTF-8"?><!DOCTYPE svg PUBLIC "-//W3C//DTD SVG 1.1//EN" "http://www.w3.org/Graphics/SVG/1.1/DTD/svg11.dtd"><svg xmlns="http://www.w3.org/2000/svg" xmlns:xlink="http://www.w3.org/1999/xlink" version="1.1" id="mdi-delete-clock" width="24" height="24" viewBox="0 0 24 24"><path d="M15 13H16.5V15.82L18.94 17.23L18.19 18.53L15 16.69V13M23 16C23 19.87 19.87 23 16 23C14.09 23 12.36 22.24 11.1 21H8C6.9 21 6 20.1 6 19V7H18V9.29C20.89 10.15 23 12.83 23 16M16 11C13.24 11 11 13.24 11 16C11 18.76 13.24 21 16 21C18.76 21 21 18.76 21 16C21 13.24 18.76 11 16 11M19 4V6H5V4H8.5L9.5 3H14.5L15.5 4H19Z" /></svg>
